img/union.svg

<svg width="37" height="38" viewBox="0 0 37 38" fill="none" xmlns="http://www.w3.org/2000/svg">
<path fill-rule="evenodd" clip-rule="evenodd" d="M10 3.5C10 1.567 11.567 0 13.5 0H20.5C22.433 0 24 1.567 24 3.5V7H30.5C32.433 7 34 8.567 34 10.5V19.6738C33.1937 18.5289 32.1746 17.5448 31 16.7789V10.5C31 10.2239 30.7761 10 30.5 10H3.5C3.22386 10 3 10.2239 3 10.5V30.5C3 30.7761 3.22386 31 3.5 31H15.1994C15.7751 32.1262 16.5392 33.14 17.4501 34H3C1.34315 34 0 32.6569 0 31V10.5C0 8.567 1.567 7 3.5 7H10V3.5ZM21 3.5V7H13V3.5C13 3.22386 13.2239 3 13.5 3H20.5C20.7761 3 21 3.22386 21 3.5Z" fill="#207742"/>
<path fill-rule="evenodd" clip-rule="evenodd" d="M17 26C17 21.5817 20.5817 18 25 18C29.4183 18 33 21.5817 33 26C33 27.5376 32.5662 28.9738 31.8144 30.1931L36.5607 34.9393L34.4393 37.0607L29.7881 32.4095C28.4531 33.4084 26.7957 34 25 34C20.5817 34 17 30.4183 17 26ZM25 21C22.2386 21 20 23.2386 20 26C20 28.7614 22.2386 31 25 31C27.7614 31 30 28.7614 30 26C30 23.2386 27.7614 21 25 21Z" fill="#207742"/>
</svg>

<svg width="37" height="38" viewBox="0 0 37 38" fill="none" xmlns="http://www.w3.org/2000/svg"><path fill-rule="evenodd" clip-rule="evenodd" d="M10 3.5A3.5 3.5 0 0 1 13.5 0h7A3.5 3.5 0 0 1 24 3.5V7h6.5a3.5 3.5 0 0 1 3.5 3.5v9.17a11.06 11.06 0 0 0-3-2.9V10.5a.5.5 0 0 0-.5-.5h-27a.5.5 0 0 0-.5.5v20c0 .28.22.5.5.5h11.7a11.04 11.04 0 0 0 2.25 3H3a3 3 0 0 1-3-3V10.5A3.5 3.5 0 0 1 3.5 7H10V3.5Zm11 0V7h-8V3.5c0-.28.22-.5.5-.5h7c.28 0 .5.22.5.5Z" fill="#207742"/><path fill-rule="evenodd" clip-rule="evenodd" d="M17 26a8 8 0 1 1 14.81 4.2l4.75 4.74-2.12 2.12-4.65-4.65A8 8 0 0 1 17 26Zm8-5a5 5 0 1 0 0 10 5 5 0 0 0 0-10Z" fill="#207742"/></svg>
